SVG_Azure_Grouped/Compute/Container Instance.svg

<?xml version="1.0" encoding="UTF-8" standalone="no"?>
<!-- Generated by Microsoft Visio, SVG Export Container Instance.svg Page-1 -->

<svg
   xmlns:dc="http://purl.org/dc/elements/1.1/"
   xmlns:cc="http://creativecommons.org/ns#"
   xmlns:rdf="http://www.w3.org/1999/02/22-rdf-syntax-ns#"
   xmlns:svg="http://www.w3.org/2000/svg"
   xmlns="http://www.w3.org/2000/svg"
   xmlns:sodipodi="http://sodipodi.sourceforge.net/DTD/sodipodi-0.dtd"
   xmlns:inkscape="http://www.inkscape.org/namespaces/inkscape"
   width="0.74805301in"
   height="0.78756106in"
   viewBox="0 0 53.859999 56.704341"
   xml:space="preserve"
   class="st6"
   version="1.1"
   id="svg53"
   sodipodi:docname="Container Instance.svg"
   style="font-size:12px;overflow:visible;color-interpolation-filters:sRGB;fill:none;fill-rule:evenodd;stroke-linecap:square;stroke-miterlimit:3"
   inkscape:version="0.92.5 (2060ec1f9f, 2020-04-08)"><metadata
   id="metadata57"><rdf:RDF><cc:Work
       rdf:about=""><dc:format>image/svg+xml</dc:format><dc:type
         rdf:resource="http://purl.org/dc/dcmitype/StillImage" /></cc:Work></rdf:RDF></metadata><sodipodi:namedview
   pagecolor="#ffffff"
   bordercolor="#666666"
   borderopacity="1"
   objecttolerance="10"
   gridtolerance="10"
   guidetolerance="10"
   inkscape:pageopacity="0"
   inkscape:pageshadow="2"
   inkscape:window-width="640"
   inkscape:window-height="480"
   id="namedview55"
   showgrid="false"
   inkscape:zoom="1.4378657"
   inkscape:cx="35.905613"
   inkscape:cy="36.718968"
   inkscape:window-x="0"
   inkscape:window-y="0"
   inkscape:window-maximized="0"
   inkscape:current-layer="svg53" />
	<style
   type="text/css"
   id="style2">
	<![CDATA[
		.st1 {fill:url(#grad0-5);stroke:none;stroke-linecap:butt;stroke-width:32.3827}
		.st2 {fill:#f2f2f2;stroke:none;stroke-linecap:butt;stroke-width:32.3827}
		.st3 {fill:#a67af4;stroke:none;stroke-linecap:butt;stroke-width:32.3827}
		.st4 {fill:#552f99;stroke:none;stroke-linecap:butt;stroke-width:32.3827}
		.st5 {fill:#b77af4;fill-opacity:0.75;stroke:none;stroke-linecap:butt;stroke-width:32.3827}
		.st6 {fill:none;fill-rule:evenodd;font-size:12px;overflow:visible;stroke-linecap:square;stroke-miterlimit:3}
	]]>
	</style>

	<defs
   id="Patterns_And_Gradients">
		<linearGradient
   id="grad0-5"
   x1="0"
   y1="102.26729"
   x2="45.014674"
   y2="102.26729"
   gradientTransform="scale(1.1964987,0.8357719)"
   gradientUnits="userSpaceOnUse">
			<stop
   offset="0"
   stop-color="#0078d4"
   stop-opacity="1"
   id="stop4" />
			<stop
   offset="0.16"
   stop-color="#1380da"
   stop-opacity="1"
   id="stop6" />
			<stop
   offset="0.53"
   stop-color="#3c91e5"
   stop-opacity="1"
   id="stop8" />
			<stop
   offset="0.82"
   stop-color="#559cec"
   stop-opacity="1"
   id="stop10" />
			<stop
   offset="1"
   stop-color="#5ea0ef"
   stop-opacity="1"
   id="stop12" />
		</linearGradient>
	</defs>
	<g
   id="g51"
   transform="translate(-32.3827,-32.384498)">
		<title
   id="title16">Page-1</title>
		<g
   id="group11514-1"
   transform="translate(32.3827,-34.0157)">
			<title
   id="title18">Container Instance.11514</title>
			<g
   id="shape11515-2"
   transform="translate(0,-19.0722)">
				<title
   id="title20">path17</title>
				<path
   d="M 53.86,111.31 A 12.0535,11.8923 -180 0 0 43.37,99.86 15.2104,15.0069 -180 0 0 27.68,85.48 15.6568,15.4474 -180 0 0 12.76,95.51 14.4451,14.2519 -180 0 0 0,109.2 14.6364,14.4406 -180 0 0 15.15,123.07 h 1.34 24.49 a 2.04081,2.01351 -180 0 0 0.63,0 12.2449,12.0811 -180 0 0 12.25,-11.76 z"
   class="st1"
   id="path22"
   inkscape:connector-curvature="0"
   style="fill:url(#grad0-5);stroke:none;stroke-width:32.38270187;stroke-linecap:butt" />
			</g>
			<g
   id="shape11516-6"
   transform="translate(18.4524,-24.634)">
				<title
   id="title25">path19</title>
				<path
   d="m 0.11,111.36 8.22,-8.11 a 0.988518,0.975294 0 0 1 1.40306,0 L 18,111.4 a 0.446427,0.440455 0 0 1 -0.318877,0.75507 L 12.61,112.15 a 0.41454,0.408994 -180 0 0 -0.446427,0.40899 L 12.16,122.75 a 0.350764,0.346072 0 0 1 -0.350765,0.34607 L 6.26,123.1 A 0.350764,0.346072 0 0 1 5.909236,122.75393 L 5.91,112.69 A 0.41454,0.408994 -180 0 0 5.623011,112.1237 L 0.39,112.12 a 0.446427,0.440455 0 0 1 -0.286989,-0.75507 z"
   class="st2"
   id="path27"
   inkscape:connector-curvature="0"
   style="fill:#f2f2f2;stroke:none;stroke-width:32.38270187;stroke-linecap:butt" />
			</g>
			<g
   id="shape11517-8"
   transform="translate(27.0726,-0.0629223)">
				<title
   id="title30">path21</title>
				<path
   d="m 15.69,102.24 a 0.446427,0.440455 -180 0 0 -0.28699,-0.40899 L 0.41,96.83 H 0 v 26.27 h 0.41 l 15.02,-5.92 a 0.41454,0.408994 -180 0 0 0.255102,-0.40899 z"
   class="st3"
   id="path32"
   inkscape:connector-curvature="0"
   style="fill:#a67af4;stroke:none;stroke-width:32.38270187;stroke-linecap:butt" />
			</g>
			<g
   id="shape11518-10"
   transform="translate(12.213)">
				<title
   id="title35">path23</title>
				<path
   d="M 14.76,96.86 0.38,99.47 a 0.446427,0.440455 -180 0 0 -0.382652,0.408994 L 0,119.51 a 0.446427,0.440455 -180 0 0 0.350764,0.44046 L 14.76,123.1 a 0.446427,0.440455 -180 0 0 0.510202,-0.44046 L 15.27,97.49 a 0.446427,0.440455 -180 0 0 -0.510202,-0.629222 z"
   class="st4"
   id="path37"
   inkscape:connector-curvature="0"
   style="fill:#552f99;stroke:none;stroke-width:32.38270187;stroke-linecap:butt" />
			</g>
			<g
   id="shape11519-12"
   transform="translate(20.3124,-3.27196)">
				<title
   id="title40">polygon25</title>
				<path
   d="M 5.01,103.18 0,104.03 v 18.28 l 5.01,0.79 z"
   class="st5"
   id="path42"
   inkscape:connector-curvature="0"
   style="fill:#b77af4;fill-opacity:0.75;stroke:none;stroke-width:32.38270187;stroke-linecap:butt" />
			</g>
			<g
   id="shape11520-14"
   transform="translate(14.1581,-4.46748)">
				<title
   id="title45">polygon27</title>
				<path
   d="M 4.37,105.51 0,106.24 v 15.98 l 4.37,0.88 z"
   class="st5"
   id="path47"
   inkscape:connector-curvature="0"
   style="fill:#b77af4;fill-opacity:0.75;stroke:none;stroke-width:32.38270187;stroke-linecap:butt" />
			</g>
		</g>
	</g>
</svg>

<?xml version="1.0" encoding="UTF-8" standalone="no"?>
<!DOCTYPE svg PUBLIC "-//W3C//DTD SVG 1.1//EN" "http://www.w3.org/Graphics/SVG/1.1/DTD/svg11.dtd">
<!-- Generated by Microsoft Visio, SVG Export Container Instance.svg Page-1 -->
<svg xmlns="http://www.w3.org/2000/svg" xmlns:xlink="http://www.w3.org/1999/xlink" xmlns:ev="http://www.w3.org/2001/xml-events"
		width="1.64755in" height="1.70971in" viewBox="0 0 118.624 123.099" xml:space="preserve" color-interpolation-filters="sRGB"
		class="st6">
	<style type="text/css">
	<![CDATA[
		.st1 {fill:url(#grad0-5);stroke:none;stroke-linecap:butt;stroke-width:32.3827}
		.st2 {fill:#f2f2f2;stroke:none;stroke-linecap:butt;stroke-width:32.3827}
		.st3 {fill:#a67af4;stroke:none;stroke-linecap:butt;stroke-width:32.3827}
		.st4 {fill:#552f99;stroke:none;stroke-linecap:butt;stroke-width:32.3827}
		.st5 {fill:#b77af4;fill-opacity:0.75;stroke:none;stroke-linecap:butt;stroke-width:32.3827}
		.st6 {fill:none;fill-rule:evenodd;font-size:12px;overflow:visible;stroke-linecap:square;stroke-miterlimit:3}
	]]>
	</style>

	<defs id="Patterns_And_Gradients">
		<linearGradient id="grad0-5" x1="0" y1="0" x2="1" y2="0" gradientTransform="rotate(-90 0.5 0.5)">
			<stop offset="0" stop-color="#0078d4" stop-opacity="1"/>
			<stop offset="0.16" stop-color="#1380da" stop-opacity="1"/>
			<stop offset="0.53" stop-color="#3c91e5" stop-opacity="1"/>
			<stop offset="0.82" stop-color="#559cec" stop-opacity="1"/>
			<stop offset="1" stop-color="#5ea0ef" stop-opacity="1"/>
		</linearGradient>
	</defs>
	<g>
		<title>Page-1</title>
		<g id="group11235-1" transform="translate(32.3827,-34.0157)">
			<title>Container Instance.11235</title>
			<g id="shape11236-2" transform="translate(0,-19.0722)">
				<title>path17</title>
				<path d="M53.86 111.31 A12.0535 11.8923 -180 0 0 43.37 99.86 A15.2104 15.0069 -180 0 0 27.68 85.48 A15.6568 15.4474
							 -180 0 0 12.76 95.51 A14.4451 14.2519 -180 0 0 -0 109.2 A14.6364 14.4406 -180 0 0 15.15 123.07 L16.49
							 123.07 L40.98 123.07 A2.04081 2.01351 -180 0 0 41.61 123.07 A12.2449 12.0811 -180 0 0 53.86 111.31 Z"
						class="st1"/>
			</g>
			<g id="shape11237-6" transform="translate(18.4524,-24.634)">
				<title>path19</title>
				<path d="M0.11 111.36 L8.33 103.25 a0.988518 0.975294 0 0 1 1.40306 0 L18 111.4 a0.446427 0.440455 0 0 1 -0.318877
							 0.755066 L12.61 112.15 a0.41454 0.408994 -180 0 0 -0.446427 0.408994 L12.16 122.75 a0.350764 0.346072
							 0 0 1 -0.350765 0.346072 L6.26 123.1 a0.350764 0.346072 0 0 1 -0.350764 -0.346072 L5.91 112.69 a0.41454
							 0.408994 -180 0 0 -0.286989 -0.566301 L0.39 112.12 a0.446427 0.440455 0 0 1 -0.286989 -0.755066 Z"
						class="st2"/>
			</g>
			<g id="shape11238-8" transform="translate(27.0726,-0.0629223)">
				<title>path21</title>
				<path d="M15.69 102.24 a0.446427 0.440455 -180 0 0 -0.28699 -0.408994 L0.41 96.83 L0 96.83 L0 123.1 L0.41 123.1 L15.43
							 117.18 a0.41454 0.408994 -180 0 0 0.255102 -0.408994 L15.69 102.24 Z" class="st3"/>
			</g>
			<g id="shape11239-10" transform="translate(12.213,-2.70006E-13)">
				<title>path23</title>
				<path d="M14.76 96.86 L0.38 99.47 a0.446427 0.440455 -180 0 0 -0.382652 0.408994 L0 119.51 a0.446427 0.440455 -180
							 0 0 0.350764 0.440455 L14.76 123.1 a0.446427 0.440455 -180 0 0 0.510202 -0.440455 L15.27 97.49 a0.446427
							 0.440455 -180 0 0 -0.510202 -0.629222 Z" class="st4"/>
			</g>
			<g id="shape11240-12" transform="translate(20.3124,-3.27196)">
				<title>polygon25</title>
				<path d="M5.01 103.18 L0 104.03 L0 122.31 L5.01 123.1 L5.01 103.18 Z" class="st5"/>
			</g>
			<g id="shape11241-14" transform="translate(14.1581,-4.46748)">
				<title>polygon27</title>
				<path d="M4.37 105.51 L0 106.24 L0 122.22 L4.37 123.1 L4.37 105.51 Z" class="st5"/>
			</g>
		</g>
	</g>
</svg>
